Assets/Third Party Assets/moon_lut.CUBE
#Created by: Adobe Photoshop Export Color Lookup Plugin
TITLE "lut.exr"
#LUT size
LUT_3D_SIZE 8
#data domain
#LUT data points
DOMAIN_MIN 0.000000 0.000000 0.000000
DOMAIN_MAX 0.903226 0.903226 0.903226
0.000000 0.000000 0.000000
0.009996 0.000000 0.000000
0.104692 0.000000 0.008524
0.194596 0.000000 0.022669
0.272331 0.001717 0.038561
0.340231 0.021765 0.053626
0.425014 0.025168 0.075494
0.504055 0.047393 0.106593
0.000000 0.024428 0.014258
0.005235 0.008967 0.008671
0.105357 0.008033 0.018287
0.188706 0.037611 0.027923
0.257978 0.041910 0.037491
0.333034 0.048507 0.070708
0.415884 0.054537 0.093852
0.504491 0.068229 0.113501
0.000000 0.128454 0.061386
0.000000 0.116904 0.061314
0.087897 0.110951 0.065004
0.161349 0.114684 0.081897
0.249454 0.115656 0.084734
0.326326 0.118774 0.100421
0.410851 0.118116 0.118300
0.498562 0.120876 0.133403
0.000000 0.199771 0.132295
0.000000 0.197017 0.129999
0.068568 0.191324 0.136184
0.159855 0.181351 0.130979
0.231000 0.195252 0.136226
0.312731 0.183050 0.149762
0.409947 0.191647 0.162697
0.495398 0.200765 0.186622
0.000000 0.286639 0.210040
0.000000 0.277095 0.197862
0.065090 0.275210 0.188315
0.133651 0.270054 0.186846
0.226926 0.268309 0.188584
0.307404 0.271782 0.204778
0.396857 0.278702 0.224126
0.496843 0.286251 0.237826
0.000000 0.381355 0.282667
0.000000 0.380198 0.281705
0.055759 0.366069 0.263283
0.136891 0.364229 0.273665
0.216667 0.358522 0.252153
0.311699 0.367256 0.275849
0.399607 0.378680 0.305245
0.500742 0.388763 0.312323
0.000000 0.479646 0.352471
0.000000 0.487565 0.363375
0.057715 0.482475 0.358641
0.133369 0.476461 0.354514
0.219218 0.469763 0.360535
0.315863 0.476132 0.366685
0.409109 0.481838 0.378769
0.504490 0.495331 0.400366
0.000000 0.614707 0.478499
0.039441 0.605651 0.457560
0.068618 0.610638 0.461777
0.136682 0.603835 0.461042
0.233395 0.606207 0.468455
0.320408 0.602543 0.465227
0.432194 0.600853 0.468074
0.534175 0.618126 0.496976
0.000000 0.000000 0.064217
0.000000 0.000000 0.079887
0.098607 0.000000 0.117827
0.180767 0.000000 0.130783
0.248867 0.014378 0.138645
0.330947 0.017914 0.146582
0.407276 0.030321 0.151934
0.492746 0.052287 0.172697
0.000000 0.020115 0.109919
0.000000 0.012336 0.123361
0.073326 0.013355 0.134707
0.168657 0.032613 0.131511
0.250184 0.044741 0.144919
0.325375 0.045054 0.152981
0.407735 0.057707 0.161801
0.499162 0.068645 0.180203
0.000000 0.120246 0.158320
0.000000 0.117109 0.168525
0.072492 0.105542 0.152730
0.153536 0.108777 0.146144
0.230387 0.111040 0.159832
0.313257 0.110533 0.161768
0.401568 0.109141 0.184292
0.490129 0.118532 0.197083
0.000000 0.203530 0.204214
0.000000 0.201799 0.189800
0.054458 0.186830 0.199271
0.139679 0.184233 0.194240
0.221701 0.188797 0.191737
0.310318 0.178808 0.198454
0.396384 0.181165 0.205784
0.485981 0.188697 0.225605
0.000000 0.290683 0.251927
0.000000 0.287980 0.250884
0.033151 0.278237 0.251702
0.131967 0.271713 0.245917
0.212431 0.264515 0.238209
0.293826 0.266270 0.250331
0.387304 0.274454 0.265366
0.486576 0.282216 0.282828
0.000000 0.385291 0.323363
0.000000 0.382893 0.317495
0.031609 0.369432 0.314090
0.127331 0.365215 0.301386
0.203539 0.366619 0.314289
0.293394 0.365988 0.317175
0.390260 0.376424 0.333987
0.494168 0.377306 0.335389
0.000000 0.495380 0.410407
0.000000 0.492655 0.411913
0.049775 0.484289 0.390745
0.119614 0.480696 0.393466
0.214015 0.476499 0.385778
0.307623 0.469430 0.390566
0.398198 0.479834 0.404925
0.501606 0.493647 0.421082
0.000000 0.615966 0.507442
0.000000 0.611999 0.492027
0.057906 0.608159 0.491837
0.138612 0.605113 0.484011
0.239023 0.597086 0.489223
0.325402 0.607490 0.499245
0.423143 0.605653 0.508928
0.525592 0.618828 0.527384
0.000000 0.000000 0.189243
0.000000 0.000000 0.206446
0.064496 0.000000 0.228825
0.152060 0.000000 0.249925
0.227764 0.016273 0.246842
0.314328 0.028794 0.261075
0.395290 0.037628 0.272587
0.479378 0.055164 0.274986
0.000000 0.000270 0.216645
0.000000 0.009209 0.238338
0.045580 0.017673 0.252712
0.137710 0.031599 0.246778
0.227431 0.047791 0.272546
0.304400 0.057315 0.270253
0.390380 0.063587 0.275969
0.478605 0.077443 0.294053
0.000000 0.104741 0.248532
0.000000 0.103004 0.255405
0.016156 0.096864 0.263465
0.104599 0.098196 0.266229
0.205979 0.110269 0.282269
0.288913 0.109144 0.287203
0.383516 0.111837 0.276480
0.470536 0.127087 0.311997
0.000000 0.194303 0.299228
0.000000 0.193264 0.304083
0.000000 0.184573 0.294012
0.107963 0.176620 0.287871
0.193658 0.188394 0.290600
0.287837 0.187513 0.294495
0.375506 0.187834 0.321521
0.458870 0.190859 0.331460
0.000000 0.276150 0.328618
0.000000 0.275681 0.333001
0.000000 0.274069 0.326346
0.105952 0.260463 0.318079
0.185468 0.259274 0.329928
0.271113 0.267533 0.343965
0.369968 0.276229 0.345494
0.465435 0.271639 0.355194
0.000000 0.386409 0.406515
0.000000 0.385864 0.396526
0.000000 0.381869 0.406736
0.085925 0.371027 0.389675
0.184650 0.365895 0.395782
0.283738 0.364989 0.394380
0.364227 0.369613 0.397632
0.468480 0.370004 0.419736
0.000000 0.499197 0.485307
0.000000 0.498412 0.487398
0.000000 0.486251 0.481579
0.080210 0.477170 0.462092
0.190584 0.479121 0.469900
0.280163 0.478519 0.473307
0.382051 0.474349 0.473292
0.474016 0.495066 0.495721
0.000000 0.626386 0.572025
0.000000 0.629906 0.582030
0.000000 0.618443 0.573321
0.112175 0.611921 0.560469
0.202684 0.604673 0.561404
0.300963 0.607557 0.567323
0.405576 0.605215 0.571007
0.503020 0.620034 0.589236
0.000000 0.000000 0.321422
0.000000 0.000000 0.345405
0.016632 0.000000 0.359575
0.108671 0.000000 0.367048
0.200547 0.017507 0.365761
0.296047 0.028595 0.382062
0.367387 0.051549 0.393266
0.452745 0.064483 0.412350
0.000000 0.000596 0.356369
0.000000 0.005731 0.355892
0.000000 0.015523 0.366599
0.102062 0.029722 0.362218
0.194994 0.046895 0.372683
0.277391 0.058958 0.391989
0.361174 0.068814 0.397036
0.452500 0.077025 0.410718
0.000000 0.092416 0.376667
0.000000 0.092134 0.374438
0.000000 0.098756 0.384150
0.065429 0.090721 0.369308
0.178407 0.098627 0.382737
0.268575 0.110841 0.407402
0.359106 0.116324 0.413862
0.453035 0.132470 0.428943
0.000000 0.183513 0.397943
0.000000 0.179382 0.386891
0.000000 0.181556 0.405282
0.048257 0.174574 0.401762
0.144979 0.168704 0.417124
0.242894 0.182899 0.421138
0.349133 0.188582 0.435255
0.441811 0.193692 0.440612
0.000000 0.263835 0.444991
0.000000 0.269327 0.444526
0.000000 0.270377 0.449446
0.032786 0.257861 0.440595
0.144527 0.251825 0.432599
0.237929 0.265654 0.450394
0.343049 0.272548 0.455627
0.434805 0.278245 0.488544
0.000000 0.361837 0.491282
0.000000 0.358474 0.478827
0.000000 0.365107 0.499567
0.008737 0.358932 0.478955
0.150059 0.359349 0.490148
0.254261 0.362467 0.497373
0.339005 0.364867 0.498408
0.446923 0.376815 0.528145
0.000000 0.482940 0.570192
0.000000 0.483986 0.559203
0.000000 0.483965 0.568244
0.011908 0.466504 0.554141
0.136680 0.470234 0.568982
0.254148 0.468270 0.551770
0.361373 0.469055 0.563472
0.445101 0.481807 0.589473
0.000000 0.633200 0.668884
0.000000 0.629264 0.676487
0.000000 0.620776 0.665963
0.047025 0.622287 0.663782
0.162713 0.606754 0.645765
0.265009 0.617030 0.660714
0.374824 0.609081 0.668374
0.492659 0.617668 0.676527
0.000000 0.000000 0.442965
0.000000 0.000000 0.465834
0.000000 0.000000 0.467520
0.047276 0.003227 0.481545
0.151364 0.015234 0.484806
0.247291 0.033606 0.500247
0.347331 0.052017 0.513847
0.448763 0.066777 0.535869
0.000000 0.000000 0.462988
0.000000 0.004532 0.478196
0.000000 0.017524 0.477244
0.023765 0.033383 0.475587
0.138391 0.048036 0.489881
0.242148 0.059691 0.498473
0.346432 0.069799 0.525229
0.436843 0.090741 0.535207
0.000000 0.088516 0.488606
0.000000 0.093076 0.498864
0.000000 0.092164 0.508334
0.000000 0.089866 0.496338
0.124681 0.096623 0.493827
0.234510 0.104090 0.504815
0.324002 0.121272 0.525279
0.433092 0.127607 0.547690
0.000000 0.170888 0.527218
0.000000 0.171016 0.521041
0.000000 0.171374 0.522692
0.000000 0.175478 0.523573
0.098537 0.162749 0.517454
0.217458 0.175855 0.515613
0.324365 0.182862 0.542031
0.424620 0.194785 0.569031
0.000000 0.259847 0.540974
0.000000 0.260911 0.535883
0.000000 0.261852 0.542118
0.000000 0.251186 0.534518
0.088784 0.251104 0.548042
0.189965 0.246077 0.562284
0.292311 0.265593 0.583514
0.413989 0.278625 0.606898
0.000000 0.354230 0.593253
0.000000 0.354338 0.592223
0.000000 0.357650 0.618942
0.000000 0.357881 0.599705
0.058300 0.355763 0.606477
0.200942 0.349458 0.611817
0.300275 0.353891 0.602198
0.419985 0.375147 0.623475
0.000000 0.466992 0.655160
0.000000 0.468550 0.661334
0.000000 0.469081 0.665981
0.000000 0.468870 0.668910
0.077218 0.464048 0.661999
0.209572 0.462104 0.663465
0.319378 0.463655 0.675623
0.423001 0.474381 0.686991
0.000000 0.603036 0.750653
0.000000 0.597875 0.745030
0.000000 0.599247 0.748234
0.000000 0.600182 0.753898
0.100585 0.599724 0.740837
0.234947 0.598845 0.750009
0.334409 0.606984 0.762514
0.464594 0.611473 0.779382
0.000000 0.000000 0.587542
0.000000 0.000000 0.600448
0.000000 0.000000 0.592160
0.000000 0.000000 0.593033
0.086596 0.016096 0.611554
0.216108 0.031517 0.610682
0.304152 0.051852 0.633678
0.408260 0.069845 0.661037
0.000000 0.007844 0.591531
0.000000 0.013613 0.600099
0.000000 0.024082 0.599661
0.000000 0.036154 0.615249
0.072751 0.046743 0.611876
0.200365 0.054022 0.617481
0.295169 0.075534 0.630983
0.413392 0.081380 0.655287
0.000000 0.089740 0.616988
0.000000 0.087369 0.621215
0.000000 0.089161 0.618116
0.000000 0.091090 0.627611
0.031175 0.092657 0.631184
0.177135 0.108396 0.628731
0.290454 0.114684 0.651007
0.399432 0.134949 0.657982
0.000000 0.167021 0.646663
0.000000 0.162221 0.645055
0.000000 0.163208 0.644361
0.000000 0.168802 0.647264
0.000000 0.163203 0.649535
0.157890 0.174034 0.640212
0.272312 0.185158 0.662078
0.380867 0.202804 0.682828
0.000000 0.249642 0.665955
0.000000 0.248609 0.671795
0.000000 0.254359 0.679784
0.000000 0.253004 0.687241
0.000087 0.254470 0.677382
0.134549 0.248905 0.676734
0.266903 0.264454 0.684778
0.387367 0.265841 0.708012
0.000000 0.350681 0.711329
0.000000 0.348951 0.702714
0.000000 0.345044 0.711272
0.000000 0.349713 0.711319
0.027899 0.346778 0.714753
0.135814 0.346434 0.729872
0.239830 0.350343 0.736739
0.369132 0.368469 0.760173
0.000000 0.464289 0.786371
0.000000 0.458107 0.775634
0.000000 0.457989 0.782122
0.000000 0.466136 0.798229
0.000000 0.465590 0.786019
0.125919 0.464476 0.785715
0.272257 0.459131 0.792975
0.373391 0.473745 0.809691
0.000000 0.592078 0.864224
0.000000 0.584933 0.866918
0.000000 0.595903 0.864551
0.000000 0.597843 0.885808
0.000000 0.599292 0.880125
0.159697 0.601460 0.876159
0.287728 0.595594 0.885252
0.412621 0.611716 0.904948
0.000000 0.000000 0.725678
0.000000 0.000000 0.707053
0.000000 0.000000 0.714054
0.000000 0.001780 0.723957
0.000000 0.015546 0.729999
0.128245 0.032843 0.740072
0.257967 0.058460 0.753503
0.367146 0.068488 0.769177
0.000000 0.015110 0.721403
0.000000 0.019231 0.721454
0.000000 0.022638 0.737361
0.000000 0.027375 0.738129
0.000000 0.038150 0.741120
0.137773 0.053592 0.743324
0.245365 0.066147 0.766468
0.352458 0.088690 0.776551
0.000000 0.078907 0.732480
0.000000 0.080741 0.738168
0.000000 0.083325 0.735835
0.000000 0.085147 0.751018
0.000000 0.086941 0.745448
0.101727 0.111054 0.764993
0.231331 0.117948 0.770171
0.359556 0.129665 0.784510
0.000000 0.159336 0.763925
0.000000 0.161492 0.761784
0.000000 0.158323 0.770973
0.000000 0.161138 0.780219
0.000000 0.163700 0.772691
0.065606 0.161314 0.775234
0.210207 0.177350 0.779034
0.345387 0.191922 0.797151
0.000000 0.238957 0.788877
0.000000 0.243182 0.796283
0.000000 0.239260 0.796242
0.000000 0.246841 0.795353
0.000000 0.247055 0.819435
0.050123 0.245242 0.800466
0.200181 0.242179 0.813578
0.327189 0.272748 0.828906
0.000000 0.339437 0.820910
0.000000 0.341587 0.831209
0.000000 0.346066 0.849528
0.000000 0.345759 0.857934
0.000000 0.346162 0.872591
0.043688 0.349007 0.859998
0.189183 0.345408 0.866996
0.330789 0.363945 0.860618
0.000000 0.449984 0.879359
0.000000 0.452994 0.876042
0.000000 0.459194 0.900192
0.000000 0.457906 0.903090
0.000000 0.464616 0.917471
0.064786 0.454638 0.897773
0.209430 0.459872 0.921201
0.318982 0.464585 0.940770
0.000000 0.580364 0.991998
0.000000 0.584684 0.990283
0.000000 0.589198 0.989449
0.000000 0.586910 1.000000
0.000000 0.598845 1.000000
0.068477 0.592245 1.000000
0.209329 0.601603 1.000000
0.370872 0.603990 1.000000
0.000000 0.000000 0.842438
0.000000 0.000000 0.846442
0.000000 0.000000 0.845625
0.000000 0.010389 0.860156
0.000000 0.021708 0.868147
0.034008 0.046625 0.869940
0.182147 0.053414 0.881256
0.308646 0.073935 0.896265
0.000000 0.019939 0.855484
0.000000 0.022323 0.851302
0.000000 0.026411 0.859776
0.000000 0.031285 0.863607
0.000000 0.043520 0.875562
0.006936 0.047840 0.869239
0.176142 0.072201 0.878840
0.306999 0.089012 0.899445
0.000000 0.077087 0.858473
0.000000 0.075096 0.859901
0.000000 0.076834 0.861233
0.000000 0.086517 0.872234
0.000000 0.094700 0.895903
0.000000 0.093095 0.885291
0.177856 0.120981 0.885357
0.303243 0.130308 0.909614
0.000000 0.154157 0.890038
0.000000 0.156375 0.885520
0.000000 0.156562 0.892391
0.000000 0.153613 0.895711
0.000000 0.164585 0.912773
0.000000 0.158380 0.904831
0.148566 0.175345 0.902471
0.288181 0.196756 0.925276
0.000000 0.230308 0.912597
0.000000 0.231723 0.916261
0.000000 0.234600 0.918658
0.000000 0.238761 0.930873
0.000000 0.240392 0.936689
0.000000 0.250142 0.952567
0.118398 0.245106 0.933434
0.280429 0.272596 0.954263
0.000000 0.330859 0.972729
0.000000 0.332869 0.958213
0.000000 0.336339 0.977175
0.000000 0.338683 0.979848
0.000000 0.340320 0.985063
0.000000 0.349302 1.000000
0.112626 0.348529 0.987664
0.258471 0.347711 1.000000
0.000000 0.442499 1.000000
0.000000 0.446620 1.000000
0.000000 0.443213 1.000000
0.000000 0.453859 1.000000
0.000000 0.457197 1.000000
0.000000 0.454713 1.000000
0.115369 0.456948 1.000000
0.263985 0.468271 1.000000
0.000000 0.573573 1.000000
0.000000 0.580738 1.000000
0.000000 0.579653 1.000000
0.000000 0.581911 1.000000
0.000000 0.590489 1.000000
0.000000 0.594610 1.000000
0.154508 0.594424 1.000000
0.303814 0.600191 1.000000
