Assets/Third Party Assets/moon_lut.CUBE
#Created by: Adobe Photoshop Export Color Lookup Plugin
TITLE "lut.exr"
#LUT size
LUT_3D_SIZE 32
#data domain
DOMAIN_MIN 0.0 0.0 0.0
DOMAIN_MAX 1.0 1.0 1.0
#LUT data points
0.000000 0.000000 0.000000
0.000000 0.000000 0.000000
0.000000 0.000000 0.000000
0.000000 0.000000 0.000000
0.009996 0.000000 0.000000
0.028404 0.000000 0.000000
0.049147 0.000000 0.005145
0.076505 0.000000 0.005426
0.104692 0.000000 0.008524
0.133754 0.000000 0.020284
0.159364 0.000000 0.027755
0.176984 0.000000 0.025230
0.194596 0.000000 0.022669
0.212107 0.000000 0.020045
0.231797 0.000000 0.022501
0.254149 0.000000 0.031283
0.272331 0.001717 0.038561
0.286525 0.006448 0.044338
0.302836 0.013078 0.049900
0.320909 0.021336 0.055281
0.340231 0.021765 0.053626
0.360376 0.017209 0.047561
0.382405 0.016863 0.054557
0.405384 0.018503 0.067928
0.425014 0.025168 0.075494
0.443510 0.033746 0.081027
0.462210 0.039762 0.090291
0.480999 0.045186 0.100517
0.504055 0.047393 0.106593
0.527811 0.049125 0.112068
0.554835 0.053833 0.117008
0.582173 0.058777 0.121924
0.000000 0.000000 0.000000
0.000000 0.000000 0.000000
0.000000 0.000000 0.000000
0.000000 0.000000 0.000000
0.009747 0.000000 0.000000
0.037329 0.000000 0.000000
0.057169 0.000000 0.007323
0.079558 0.000000 0.008632
0.106792 0.000000 0.009935
0.132905 0.000000 0.016151
0.159541 0.000000 0.024566
0.179362 0.000000 0.024257
0.195790 0.000000 0.021967
0.211394 0.000000 0.019764
0.227797 0.002825 0.019203
0.246106 0.004616 0.024173
0.268073 0.007721 0.032869
0.285982 0.012539 0.040097
0.304440 0.017519 0.049840
0.324291 0.024330 0.058728
0.342827 0.030839 0.064240
0.362476 0.029990 0.062613
0.379807 0.025522 0.062271
0.400532 0.025262 0.072179
0.422965 0.031862 0.082714
0.442437 0.040498 0.089308
0.461572 0.043823 0.095150
0.480465 0.048617 0.104572
0.503666 0.050823 0.106984
0.527443 0.052561 0.111914
0.546886 0.057829 0.117729
0.573674 0.062834 0.122708
0.000000 0.000000 0.000000
0.000000 0.000000 0.000000
0.000000 0.000000 0.000000
0.000000 0.000000 0.000000
0.007857 0.000000 0.000000
0.036610 0.000000 0.003312
0.065784 0.000000 0.009360
0.087109 0.000000 0.010940
0.109574 0.000000 0.012747
0.134693 0.000000 0.017102
0.158387 0.000000 0.020622
0.179244 0.000000 0.021352
0.197942 0.000672 0.021031
0.212351 0.005526 0.019095
0.227059 0.009091 0.018915
0.242068 0.011139 0.020849
0.260430 0.014549 0.026654
0.282023 0.019293 0.035281
0.303383 0.023995 0.045875
0.325389 0.028983 0.058985
0.345949 0.034139 0.067742
0.364807 0.039476 0.073353
0.381688 0.038385 0.077087
0.397698 0.033932 0.079545
0.418399 0.038616 0.086449
0.440684 0.047158 0.096032
0.460518 0.050688 0.102959
0.479848 0.052732 0.108917
0.503366 0.054486 0.111016
0.527289 0.056220 0.112266
0.546471 0.061530 0.118113
0.565660 0.067099 0.123972
0.000000 0.004632 0.001556
0.000000 0.004152 0.000876
0.000000 0.003048 0.000000
0.000000 0.000000 0.000000
0.006367 0.000000 0.002552
0.028385 0.006279 0.004447
0.057831 0.001895 0.009737
0.085338 0.000000 0.013911
0.107701 0.000000 0.014271
0.132484 0.000000 0.012488
0.155331 0.001495 0.017067
0.173776 0.007508 0.021074
0.193765 0.014848 0.020667
0.210783 0.021183 0.022128
0.225463 0.026565 0.024984
0.240777 0.024989 0.025145
0.259236 0.024190 0.029641
0.280642 0.029103 0.042717
0.298561 0.032569 0.050050
0.316876 0.036197 0.059584
0.341610 0.041128 0.070098
0.363924 0.046282 0.077172
0.380480 0.047281 0.083368
0.396283 0.044078 0.087389
0.417817 0.044185 0.085874
0.440499 0.050570 0.091422
0.459929 0.056695 0.101537
0.479116 0.059654 0.108610
0.505743 0.061201 0.113749
0.530422 0.062896 0.115730
0.545937 0.068512 0.125712
0.564579 0.074161 0.132208
0.000000 0.024428 0.014258
0.000000 0.023537 0.013573
0.000000 0.023141 0.013362
0.000000 0.015793 0.012282
0.005235 0.008967 0.008671
0.027140 0.018149 0.010228
0.050779 0.025172 0.013143
0.077809 0.015902 0.017756
0.105357 0.008033 0.018287
0.129903 0.019433 0.018957
0.153109 0.027420 0.018983
0.170689 0.033061 0.024558
0.188706 0.037611 0.027923
0.207490 0.040483 0.026487
0.225029 0.041999 0.027173
0.240047 0.040961 0.029516
0.257978 0.041910 0.037491
0.279381 0.039575 0.046168
0.298674 0.042580 0.057483
0.313544 0.044882 0.063659
0.333034 0.048507 0.070708
0.359535 0.053412 0.079554
0.379570 0.054610 0.086664
0.395047 0.053495 0.093165
0.415884 0.054537 0.093852
0.439399 0.056276 0.090939
0.460098 0.061015 0.098466
0.478881 0.066596 0.108752
0.504491 0.068229 0.113501
0.532288 0.069713 0.118531
0.548575 0.075343 0.128712
0.563540 0.081297 0.139372
0.000000 0.051360 0.024646
0.000000 0.047929 0.024785
0.000000 0.047144 0.024690
0.000000 0.048908 0.033558
0.000000 0.041898 0.030203
0.024552 0.041193 0.013035
0.050034 0.050953 0.017418
0.076154 0.051109 0.028643
0.102255 0.042662 0.031819
0.124700 0.039934 0.029964
0.147939 0.047644 0.029298
0.165874 0.050804 0.032107
0.183739 0.055383 0.036461
0.202150 0.058031 0.037673
0.220718 0.060617 0.039457
0.237961 0.061725 0.044151
0.256440 0.060302 0.048118
0.277683 0.060841 0.057635
0.302070 0.054503 0.062148
0.323847 0.054349 0.070031
0.334098 0.057033 0.074320
0.350701 0.060935 0.080195
0.374977 0.063732 0.086707
0.393965 0.063909 0.092710
0.412151 0.065159 0.098990
0.433978 0.067043 0.099594
0.460088 0.071443 0.106348
0.481459 0.076895 0.116294
0.501624 0.076330 0.115566
0.527512 0.077058 0.118691
0.547034 0.082678 0.128484
0.562776 0.088658 0.139050
0.000000 0.078684 0.035337
0.000000 0.075829 0.035451
0.000000 0.072170 0.035651
0.000000 0.073036 0.043681
0.000000 0.073823 0.051182
0.019300 0.071170 0.032868
0.045168 0.072506 0.020999
0.074561 0.076279 0.034520
0.099136 0.076369 0.043798
0.121087 0.071544 0.041921
0.141804 0.069037 0.042051
0.159783 0.071620 0.044216
0.179453 0.072746 0.045548
0.197716 0.075338 0.047725
0.216086 0.078567 0.050858
0.234369 0.080747 0.056741
0.253798 0.080249 0.061785
0.275564 0.078458 0.067327
0.298096 0.078014 0.074263
0.324766 0.069712 0.076798
0.343596 0.068099 0.080781
0.350918 0.071045 0.083860
0.367512 0.072636 0.087966
0.390761 0.074419 0.093369
0.412423 0.077008 0.099105
0.431596 0.079113 0.105327
0.455414 0.083049 0.113279
0.482217 0.088154 0.122440
0.503254 0.088206 0.123992
0.523676 0.086709 0.121613
0.542861 0.090749 0.131004
0.561846 0.096720 0.141192
0.000000 0.103784 0.046166
0.000000 0.103784 0.046166
0.000000 0.100739 0.046341
0.000000 0.095069 0.047396
0.000000 0.094904 0.053881
0.023413 0.088632 0.050018
0.048918 0.088834 0.037411
0.066534 0.091869 0.044436
0.093808 0.094847 0.055594
0.111849 0.093346 0.057482
0.132403 0.090737 0.058095
0.149910 0.093005 0.063568
0.171039 0.092665 0.064075
0.195735 0.089098 0.062714
0.214201 0.093474 0.064946
0.232788 0.098887 0.068153
0.251164 0.097340 0.072158
0.270622 0.093257 0.075345
0.290512 0.095937 0.081229
0.311491 0.099183 0.088471
0.337798 0.096999 0.095397
0.356471 0.096409 0.099100
0.369513 0.094151 0.099250
0.389007 0.090976 0.099494
0.414848 0.094888 0.104120
0.437555 0.096663 0.107881
0.456817 0.098763 0.113872
0.480729 0.102759 0.121811
0.501170 0.105291 0.131946
0.521304 0.104952 0.133645
0.541049 0.103496 0.143335
0.560226 0.107590 0.153669
0.000000 0.128454 0.061386
0.000000 0.128137 0.059880
0.000000 0.127802 0.059744
0.000000 0.122145 0.060201
0.000000 0.116904 0.061314
0.022818 0.111126 0.058093
0.050462 0.105882 0.054555
0.068429 0.108506 0.061551
0.087897 0.110951 0.065004
0.108447 0.112151 0.068351
0.126054 0.110881 0.072733
0.143448 0.113125 0.078780
0.161349 0.114684 0.081897
0.187503 0.109558 0.079639
0.212080 0.108399 0.081218
0.230763 0.114993 0.083499
0.249454 0.115656 0.084734
0.267907 0.110526 0.086898
0.285562 0.109916 0.089339
0.303893 0.116366 0.095510
0.326326 0.118774 0.100421
0.353001 0.116722 0.105896
0.374786 0.116984 0.111303
0.390044 0.115851 0.114166
0.410851 0.118116 0.118300
0.437600 0.123992 0.123934
0.459224 0.126902 0.128851
0.478731 0.125620 0.131152
0.498562 0.120876 0.133403
0.518138 0.122249 0.142874
0.540893 0.121719 0.151911
0.560637 0.120251 0.162528
0.000000 0.150934 0.089291
0.000000 0.149691 0.083302
0.000000 0.149032 0.081624
0.000000 0.143778 0.079464
0.000282 0.138587 0.079970
0.018046 0.136771 0.081372
0.044986 0.131111 0.079153
0.064391 0.125947 0.079196
0.084109 0.127964 0.082501
0.108168 0.128596 0.074921
0.128603 0.129631 0.080440
0.145636 0.127777 0.090083
0.162110 0.130440 0.093363
0.178420 0.132645 0.091985
0.204205 0.130470 0.094937
0.228257 0.132959 0.102938
0.247050 0.133736 0.103223
0.265842 0.128872 0.102505
0.282659 0.126162 0.102784
0.298957 0.127572 0.103681
0.320030 0.131619 0.107463
0.344241 0.132493 0.110865
0.370634 0.135540 0.119082
0.392312 0.138240 0.125824
0.407641 0.137115 0.128516
0.428519 0.139413 0.132616
0.452550 0.142609 0.135339
0.473534 0.145010 0.139711
0.492362 0.146911 0.149478
0.512221 0.141936 0.152125
0.543226 0.139902 0.153517
0.566903 0.137984 0.160783
0.000000 0.170642 0.111716
0.000000 0.169602 0.110009
0.000000 0.168407 0.103747
0.000000 0.164385 0.099831
0.002220 0.159415 0.097383
0.022354 0.157395 0.097720
0.040130 0.155744 0.100221
0.059449 0.150800 0.102499
0.080868 0.146197 0.102039
0.104087 0.146791 0.093728
0.127061 0.146042 0.088639
0.146879 0.146532 0.099250
0.164150 0.146289 0.106139
0.179019 0.149614 0.104883
0.195284 0.152708 0.105000
0.220560 0.154212 0.114431
0.243579 0.153416 0.120600
0.262462 0.148606 0.118958
0.280576 0.144573 0.118645
0.296035 0.143883 0.117342
0.317086 0.146266 0.119308
0.339942 0.148784 0.121568
0.364161 0.151083 0.126322
0.390474 0.156615 0.135909
0.411205 0.158392 0.140149
0.426591 0.157264 0.142793
0.446817 0.158887 0.147605
0.470245 0.161449 0.149635
0.490114 0.163818 0.155031
0.508958 0.165677 0.165381
0.537912 0.168688 0.172510
0.569768 0.166968 0.173978
0.000000 0.184138 0.121497
0.000000 0.183546 0.129090
0.000000 0.182559 0.127182
0.000000 0.182218 0.118191
0.000000 0.178496 0.113978
0.025011 0.175679 0.109749
0.044932 0.173828 0.111176
0.054916 0.172928 0.118255
0.075521 0.168822 0.119295
0.099314 0.167343 0.114762
0.122432 0.166550 0.110102
0.142656 0.162854 0.110424
0.162816 0.165102 0.118276
0.180721 0.167857 0.120613
0.195687 0.171213 0.119346
0.212050 0.174336 0.119465
0.235582 0.174090 0.127052
0.256962 0.171680 0.131566
0.275828 0.166548 0.132064
0.293926 0.162253 0.133518
0.315960 0.165666 0.136492
0.341238 0.170667 0.141188
0.364434 0.170473 0.143256
0.388875 0.171492 0.147959
0.412913 0.174841 0.151961
0.432889 0.175858 0.154257
0.450733 0.177155 0.163135
0.471612 0.179376 0.169486
0.492288 0.182483 0.168309
0.511799 0.184950 0.173270
0.537960 0.190329 0.183128
0.567526 0.193611 0.190267
0.000000 0.199771 0.132295
0.000000 0.199175 0.139933
0.000000 0.198310 0.146465
0.000000 0.196541 0.137118
0.000000 0.197017 0.129999
0.018220 0.196463 0.128344
0.045064 0.193201 0.123745
0.055861 0.191496 0.128335
0.068568 0.191324 0.136184
0.093002 0.189652 0.134547
0.116097 0.188652 0.129071
0.136515 0.185186 0.129124
0.159855 0.181351 0.130979
0.180648 0.186604 0.134254
0.197250 0.187883 0.136623
0.212304 0.191266 0.135345
0.231000 0.195252 0.136226
0.252879 0.193334 0.142052
0.272004 0.188328 0.142983
0.290865 0.182931 0.145262
0.312731 0.183050 0.149762
0.338990 0.189105 0.155488
0.362900 0.191278 0.161783
0.386300 0.189771 0.163765
0.409947 0.191647 0.162697
0.433237 0.194242 0.164741
0.454157 0.196309 0.173408
0.472637 0.198204 0.183859
0.495398 0.200765 0.186622
0.515722 0.203975 0.184957
0.540826 0.208296 0.191058
0.567589 0.213963 0.200942
0.000000 0.218790 0.144691
0.000000 0.218191 0.152376
0.000000 0.217321 0.158946
0.000000 0.212523 0.148983
0.000000 0.211569 0.141556
0.013035 0.217628 0.147489
0.035755 0.216640 0.145482
0.049750 0.211565 0.139435
0.063183 0.210588 0.144766
0.083521 0.212545 0.154714
0.107136 0.210957 0.151822
0.127800 0.210129 0.143389
0.151305 0.206524 0.144983
0.179555 0.202481 0.149301
0.198967 0.206141 0.152620
0.213636 0.205285 0.155026
0.232387 0.210340 0.155442
0.254615 0.216043 0.157875
0.273280 0.210501 0.157561
0.289729 0.202508 0.153413
0.310716 0.201736 0.157997
0.333975 0.204791 0.163972
0.357572 0.207917 0.172644
0.380242 0.208689 0.180371
0.404205 0.210892 0.176429
0.428095 0.214075 0.173297
0.450671 0.216197 0.181854
0.471458 0.218160 0.192146
0.497634 0.220136 0.198523
0.521612 0.222725 0.200687
0.545078 0.225387 0.202519
0.570490 0.229699 0.208900
0.000000 0.240218 0.163477
0.000000 0.237574 0.163011
0.000000 0.236928 0.170413
0.000000 0.233473 0.165193
0.000736 0.229558 0.155601
0.014969 0.234404 0.157429
0.031065 0.238962 0.162533
0.046545 0.234681 0.158386
0.059678 0.230655 0.155731
0.077986 0.232066 0.165196
0.098967 0.232777 0.169653
0.121070 0.230841 0.162392
0.141508 0.230086 0.158849
0.169327 0.226237 0.163433
0.196029 0.224160 0.164031
0.214051 0.226121 0.167707
0.232426 0.225054 0.171829
0.254695 0.231701 0.173864
0.273287 0.233542 0.173645
0.289267 0.224991 0.168212
0.312520 0.224526 0.171350
0.334911 0.226705 0.177426
0.354053 0.227277 0.182893
0.376418 0.229001 0.193023
0.397891 0.231736 0.194964
0.422098 0.235257 0.188930
0.448772 0.237475 0.193825
0.471233 0.239493 0.204021
0.496200 0.241768 0.208828
0.523604 0.243767 0.214625
0.543686 0.244449 0.219080
0.567431 0.247088 0.221166
0.000000 0.264590 0.190184
0.000000 0.259427 0.179641
0.000000 0.256725 0.178826
0.000000 0.255444 0.181242
0.000000 0.252885 0.176401
0.013041 0.255123 0.169474
0.029261 0.258451 0.170439
0.049307 0.256553 0.171916
0.064124 0.253337 0.171204
0.074340 0.252412 0.178496
0.093275 0.252567 0.182440
0.115295 0.250620 0.175142
0.137342 0.248700 0.172932
0.157503 0.247982 0.177416
0.183768 0.246118 0.178257
0.208468 0.246470 0.174265
0.228819 0.246362 0.180313
0.253141 0.247254 0.186118
0.271672 0.249877 0.186302
0.287150 0.248386 0.184553
0.311614 0.248462 0.188262
0.340331 0.253462 0.197223
0.357880 0.253379 0.201035
0.374740 0.252872 0.205443
0.394776 0.255417 0.209866
0.415477 0.258453 0.209811
0.445224 0.260615 0.213039
0.473312 0.262516 0.220209
0.496678 0.265063 0.223588
0.521857 0.267430 0.227405
0.537803 0.266044 0.234179
0.557126 0.266495 0.238727
0.000000 0.286639 0.210040
0.000000 0.284578 0.204725
0.000000 0.279723 0.194808
0.000000 0.279005 0.196161
0.000000 0.277095 0.197862
0.012352 0.276180 0.192296
0.027660 0.277745 0.185450
0.045593 0.276029 0.184484
0.065090 0.275210 0.188315
0.076960 0.275090 0.196472
0.090917 0.273834 0.200510
0.112874 0.271879 0.193977
0.133651 0.270054 0.186846
0.154539 0.268245 0.190595
0.175494 0.267653 0.195895
0.200064 0.267954 0.192563
0.226926 0.268309 0.188584
0.252979 0.269970 0.196424
0.274976 0.270431 0.206312
0.290413 0.269709 0.204956
0.307404 0.271782 0.204778
0.337323 0.277361 0.214347
0.363676 0.276182 0.216660
0.378934 0.275009 0.219386
0.396857 0.278702 0.224126
0.416130 0.281547 0.226556
0.438993 0.281959 0.229883
0.470167 0.283800 0.235377
0.496843 0.286251 0.237826
0.520409 0.288890 0.240198
0.539911 0.291395 0.248559
0.555098 0.289765 0.255441
0.000000 0.306452 0.223300
0.000000 0.307439 0.223142
0.000000 0.305606 0.218326
0.000000 0.305606 0.218326
0.000000 0.304238 0.218993
0.010841 0.298088 0.215733
0.028606 0.296612 0.210199
0.042110 0.295308 0.203831
0.059533 0.294668 0.205343
0.076264 0.296993 0.216019
0.091772 0.296492 0.220856
0.113618 0.294539 0.217889
0.134377 0.292706 0.211449
0.152967 0.291082 0.204592
0.171777 0.289589 0.206086
0.195398 0.289008 0.214277
0.222179 0.289327 0.210766
0.251129 0.289685 0.206796
0.277396 0.293816 0.218907
0.298331 0.295013 0.232381
0.313830 0.296874 0.231039
0.331123 0.300625 0.231048
0.359583 0.298702 0.232488
0.385081 0.294008 0.231002
0.402894 0.298595 0.236798
0.421771 0.304255 0.242556
0.441157 0.303708 0.244968
0.464306 0.303358 0.248354
0.492527 0.305761 0.250580
0.518763 0.308310 0.252563
0.541473 0.314100 0.262464
0.560845 0.316714 0.271339
0.000000 0.329261 0.241481
0.000000 0.329529 0.241139
0.000000 0.330457 0.240992
0.000000 0.330457 0.240992
0.000000 0.329571 0.239862
0.008813 0.323099 0.234281
0.029524 0.317866 0.231259
0.043002 0.316562 0.226430
0.058525 0.316094 0.222015
0.076420 0.318321 0.230000
0.093566 0.319395 0.239469
0.114488 0.317517 0.238697
0.136613 0.315556 0.233890
0.155828 0.313870 0.226856
0.174712 0.312228 0.219950
0.194173 0.311435 0.222379
0.214896 0.314482 0.234537
0.243319 0.315101 0.231377
0.272377 0.315291 0.229597
0.295696 0.318104 0.245766
0.320390 0.320822 0.254699
0.335949 0.324333 0.253363
0.354747 0.326234 0.256231
0.382570 0.320701 0.253761
0.402316 0.320406 0.251435
0.421052 0.327036 0.258332
0.446724 0.331319 0.263353
0.466195 0.329948 0.265771
0.492515 0.329372 0.269872
0.520394 0.331872 0.271620
0.543658 0.337931 0.279246
0.566378 0.343975 0.289737
0.000000 0.354570 0.263775
0.000000 0.354244 0.263279
0.000000 0.354450 0.262946
0.000000 0.354450 0.262946
0.000000 0.353560 0.261810
0.007004 0.346656 0.253002
0.030466 0.341108 0.247654
0.043877 0.339807 0.245682
0.059367 0.339343 0.242831
0.080160 0.341312 0.244151
0.098562 0.342281 0.250894
0.116312 0.340687 0.257688
0.137497 0.338803 0.255077
0.159837 0.336836 0.247337
0.179364 0.335133 0.240261
0.195297 0.334185 0.229935
0.215750 0.337340 0.240908
0.233688 0.343839 0.256839
0.262023 0.344389 0.256213
0.291156 0.344441 0.256256
0.315347 0.345127 0.267655
0.341382 0.347160 0.273872
0.359022 0.350136 0.277929
0.378865 0.351784 0.283385
0.398133 0.350145 0.278628
0.414914 0.351211 0.275500
0.443561 0.357453 0.281361
0.471701 0.361659 0.286152
0.497812 0.359559 0.291612
0.525226 0.358873 0.296188
0.548695 0.365143 0.302243
0.571731 0.371502 0.310221
0.000000 0.381355 0.282667
0.000000 0.378801 0.282575
0.000000 0.378749 0.282099
0.000000 0.380921 0.282009
0.000000 0.380198 0.281705
0.000000 0.373901 0.275999
0.022906 0.368629 0.268163
0.040207 0.368568 0.265486
0.055759 0.366069 0.263283
0.076755 0.365235 0.263127
0.098804 0.368392 0.265701
0.118486 0.368900 0.272051
0.136891 0.364229 0.273665
0.158533 0.360537 0.266141
0.182442 0.360211 0.266307
0.202733 0.359086 0.262037
0.216667 0.358522 0.252153
0.234452 0.364381 0.265971
0.253112 0.368992 0.279890
0.281546 0.369236 0.280716
0.311699 0.367256 0.275849
0.336559 0.366666 0.284208
0.362490 0.376416 0.293525
0.381162 0.379145 0.300182
0.399607 0.378680 0.305245
0.415926 0.378402 0.299671
0.441989 0.381089 0.300763
0.473137 0.387263 0.306400
0.500742 0.388763 0.312323
0.527936 0.386545 0.318267
0.547059 0.388061 0.319848
0.570280 0.394625 0.326232
0.000000 0.409126 0.299413
0.000000 0.405150 0.299578
0.000000 0.402863 0.299507
0.000000 0.406837 0.299342
0.000000 0.408292 0.298947
0.000000 0.402650 0.296581
0.007650 0.397996 0.291864
0.029623 0.399664 0.288209
0.049067 0.398405 0.285296
0.070410 0.392444 0.282440
0.092627 0.392789 0.283536
0.116909 0.398456 0.288762
0.137247 0.395880 0.289909
0.156539 0.386293 0.283225
0.179730 0.384242 0.283647
0.205507 0.385933 0.293531
0.223747 0.384993 0.289557
0.235340 0.384222 0.279337
0.253821 0.388080 0.290802
0.273087 0.391123 0.303050
0.302543 0.389328 0.298944
0.333399 0.386057 0.290951
0.356950 0.393307 0.301533
0.383197 0.407485 0.312669
0.402163 0.407009 0.319325
0.420687 0.405358 0.324399
0.446101 0.407350 0.324745
0.474464 0.410595 0.327269
0.502064 0.413213 0.333229
0.529232 0.414189 0.339230
0.546097 0.413350 0.338302
0.564545 0.414969 0.339414
0.000000 0.431883 0.316932
0.000000 0.434908 0.324303
0.000000 0.430914 0.324175
0.000000 0.429998 0.321416
0.000000 0.433263 0.320948
0.000000 0.429800 0.318498
0.008708 0.425619 0.315966
0.029181 0.427455 0.312534
0.048193 0.427505 0.310764
0.063482 0.422085 0.310656
0.087239 0.418453 0.307354
0.113031 0.422590 0.309242
0.135407 0.423892 0.308048
0.154628 0.415414 0.299965
0.175055 0.411052 0.303025
0.199895 0.412829 0.314100
0.224088 0.412640 0.315083
0.240557 0.411215 0.308464
0.260008 0.414210 0.306839
0.280853 0.417783 0.319095
0.299269 0.416737 0.321488
0.329266 0.413428 0.313723
0.358523 0.414669 0.316639
0.381511 0.425703 0.328331
0.404450 0.429811 0.331813
0.423306 0.427950 0.338483
0.448488 0.434862 0.347173
0.476189 0.437410 0.348952
0.497900 0.439818 0.354912
0.525043 0.441916 0.360949
0.552466 0.446606 0.361991
0.568661 0.445859 0.360582
0.000000 0.452272 0.334855
0.000000 0.458653 0.345696
0.000000 0.461689 0.352817
0.000000 0.457663 0.348398
0.000000 0.456014 0.345321
0.002544 0.454354 0.342798
0.018413 0.452368 0.340181
0.037819 0.454383 0.336990
0.055436 0.454594 0.335455
0.062535 0.449942 0.339186
0.080145 0.446867 0.338646
0.108691 0.448195 0.334416
0.132630 0.447940 0.329833
0.151696 0.442251 0.318365
0.172044 0.439029 0.320061
0.193821 0.441083 0.335099
0.217067 0.440972 0.337239
0.239714 0.439001 0.329769
0.264221 0.441245 0.331790
0.290443 0.447623 0.337655
0.310460 0.447091 0.340018
0.328380 0.443444 0.336146
0.356791 0.444668 0.339347
0.385359 0.448077 0.347513
0.404348 0.447985 0.350797
0.425628 0.448033 0.350995
0.450680 0.455962 0.360844
0.477444 0.465257 0.370328
0.497607 0.467747 0.376449
0.518248 0.470156 0.383082
0.549665 0.476873 0.384881
0.577464 0.481906 0.385634
0.000000 0.479646 0.352471
0.000000 0.481815 0.362842
0.000000 0.488265 0.372625
0.000000 0.491733 0.366818
0.000000 0.487565 0.363375
0.007259 0.483848 0.364387
0.022921 0.482185 0.362742
0.040777 0.482191 0.362430
0.057715 0.482475 0.358641
0.065087 0.477777 0.357920
0.080007 0.474947 0.360419
0.109906 0.476157 0.357901
0.133369 0.476461 0.354514
0.150895 0.472305 0.346367
0.174698 0.469785 0.342263
0.198787 0.471645 0.354401
0.219218 0.469763 0.360535
0.241026 0.466922 0.354265
0.261464 0.467339 0.354607
0.289004 0.472172 0.363501
0.315863 0.476132 0.366685
0.335721 0.473382 0.364350
0.355855 0.472228 0.363118
0.383945 0.475433 0.370796
0.409109 0.481838 0.378769
0.426743 0.477847 0.379115
0.460728 0.484599 0.382174
0.487392 0.494934 0.392841
0.504490 0.495331 0.400366
0.523593 0.497822 0.407165
0.551709 0.504506 0.409261
0.583550 0.511575 0.410773
0.000000 0.509543 0.370017
0.000000 0.510245 0.380247
0.000000 0.512464 0.389551
0.000000 0.519527 0.383073
0.004903 0.522885 0.378246
0.014172 0.517852 0.381501
0.026359 0.514123 0.383407
0.042895 0.512466 0.385479
0.058075 0.510726 0.384578
0.065721 0.505980 0.379082
0.080907 0.503112 0.377106
0.112699 0.504156 0.376977
0.137577 0.504336 0.375313
0.152334 0.502999 0.373283
0.174589 0.502033 0.372555
0.204252 0.503405 0.377507
0.227032 0.501311 0.380683
0.246162 0.495699 0.378347
0.265711 0.495194 0.380017
0.284318 0.497590 0.386842
0.312489 0.499946 0.393036
0.339792 0.502347 0.394501
0.361869 0.502105 0.394829
0.383117 0.502143 0.394861
0.407802 0.508353 0.402339
0.431834 0.515827 0.410273
0.462588 0.518099 0.413570
0.500191 0.526688 0.417358
0.516805 0.526546 0.424955
0.532461 0.525389 0.432058
0.559879 0.532075 0.434227
0.588694 0.539077 0.436012
0.000000 0.545401 0.406810
0.000000 0.542522 0.405608
0.000000 0.543007 0.414677
0.005714 0.542827 0.406525
0.012822 0.549575 0.402101
0.013400 0.550950 0.409667
0.025005 0.546482 0.410818
0.043745 0.544591 0.406899
0.059974 0.543004 0.407909
0.071227 0.540105 0.404280
0.083218 0.536237 0.402537
0.109880 0.535817 0.405475
0.141129 0.535413 0.403804
0.162258 0.533497 0.400892
0.178417 0.535673 0.402645
0.203874 0.538859 0.408121
0.228347 0.536602 0.404622
0.247581 0.530953 0.399506
0.268550 0.529547 0.401759
0.288170 0.531867 0.408399
0.314107 0.533653 0.416955
0.344912 0.535034 0.422844
0.370978 0.533181 0.416659
0.393469 0.532741 0.416183
0.416982 0.538317 0.422094
0.441069 0.545820 0.430054
0.462560 0.546775 0.438543
0.496602 0.550568 0.442565
0.529657 0.558198 0.449602
0.544824 0.556493 0.456773
0.571630 0.562551 0.462445
0.599752 0.569559 0.464302
0.000000 0.582830 0.448472
0.000000 0.579076 0.444491
0.000000 0.575964 0.442050
0.003831 0.573249 0.433287
0.023005 0.572723 0.427192
0.019217 0.577166 0.436842
0.021674 0.579132 0.442320
0.041689 0.577090 0.434582
0.060175 0.575270 0.429573
0.074391 0.573898 0.427489
0.090068 0.571887 0.427636
0.111343 0.569897 0.433865
0.137355 0.568018 0.435269
0.167215 0.565299 0.431132
0.189825 0.566908 0.432018
0.207680 0.573396 0.438426
0.227901 0.572945 0.435410
0.247353 0.567248 0.423899
