Assets/Third Party Assets/moon_lut.CUBE
#Created by: Adobe Photoshop Export Color Lookup Plugin
TITLE "lut.exr"
#LUT size
LUT_3D_SIZE 5
#data domain
#LUT data points
DOMAIN_MIN 0.000000 0.000000 0.000000
DOMAIN_MAX 0.903226 0.903226 0.903226
0.000000 0.000000 0.000000
0.076505 0.000000 0.005426
0.231797 0.000000 0.022501
0.360376 0.017209 0.047561
0.504055 0.047393 0.106593
0.000000 0.103784 0.046166
0.066534 0.091869 0.044436
0.214201 0.093474 0.064946
0.356471 0.096409 0.099100
0.501170 0.105291 0.131946
0.000000 0.240218 0.163477
0.046545 0.234681 0.158386
0.196029 0.224160 0.164031
0.334911 0.226705 0.177426
0.496200 0.241768 0.208828
0.000000 0.409126 0.299413
0.029623 0.399664 0.288209
0.179730 0.384242 0.283647
0.333399 0.386057 0.290951
0.502064 0.413213 0.333229
0.000000 0.614707 0.478499
0.046873 0.612770 0.468475
0.191074 0.600993 0.462418
0.349116 0.604120 0.472800
0.534175 0.618126 0.496976
0.000000 0.000000 0.157898
0.035081 0.000000 0.193275
0.195150 0.008472 0.215127
0.331732 0.034680 0.233311
0.481899 0.057525 0.255242
0.000000 0.080924 0.214299
0.007094 0.080539 0.230517
0.169761 0.088609 0.244560
0.322640 0.099147 0.255054
0.478644 0.108199 0.279315
0.000000 0.233265 0.288087
0.000000 0.233650 0.282888
0.152707 0.216913 0.278743
0.303221 0.224725 0.294298
0.469347 0.226781 0.304745
0.000000 0.412797 0.405617
0.000000 0.406959 0.402625
0.146885 0.393028 0.384337
0.314376 0.383284 0.381688
0.476680 0.402659 0.412840
0.000000 0.621707 0.548804
0.000000 0.621685 0.559355
0.166159 0.601581 0.542927
0.337433 0.603860 0.547484
0.511922 0.620071 0.574992
0.000000 0.000000 0.380716
0.000000 0.000000 0.409707
0.130873 0.010651 0.429744
0.297500 0.033667 0.447547
0.448841 0.066358 0.473365
0.000000 0.069708 0.433303
0.000000 0.075940 0.445562
0.105362 0.080946 0.433161
0.277668 0.099774 0.452007
0.436421 0.119096 0.480216
0.000000 0.219910 0.462680
0.000000 0.219581 0.465878
0.068686 0.208748 0.470337
0.244342 0.219059 0.496607
0.431108 0.241951 0.536314
0.000000 0.386841 0.563673
0.000000 0.393017 0.570925
0.048075 0.383546 0.564463
0.249037 0.380999 0.568330
0.433397 0.398943 0.585039
0.000000 0.604980 0.709416
0.000000 0.600742 0.694634
0.074361 0.602253 0.692126
0.274159 0.607094 0.701739
0.472617 0.616250 0.733086
0.000000 0.000000 0.618387
0.000000 0.000000 0.619919
0.000000 0.002457 0.630361
0.225914 0.032990 0.641180
0.392593 0.072461 0.689498
0.000000 0.065018 0.643438
0.000000 0.062839 0.645268
0.000000 0.074775 0.658117
0.196970 0.095520 0.658796
0.390910 0.117069 0.681176
0.000000 0.210216 0.684507
0.000000 0.203641 0.683852
0.000000 0.208280 0.700319
0.148460 0.202440 0.698626
0.379596 0.236403 0.725288
0.000000 0.380568 0.756461
0.000000 0.378959 0.754569
0.000000 0.382334 0.761704
0.149030 0.370374 0.777348
0.357700 0.389207 0.796297
0.000000 0.590219 0.892651
0.000000 0.594887 0.898529
0.000000 0.592290 0.897623
0.176495 0.598617 0.902407
0.399220 0.610869 0.929828
0.000000 0.000000 0.842438
0.000000 0.000000 0.845581
0.000000 0.017248 0.859511
0.086164 0.046482 0.867666
0.308646 0.073935 0.896265
0.000000 0.059375 0.852610
0.000000 0.061521 0.859899
0.000000 0.071521 0.880807
0.035333 0.078134 0.882014
0.297089 0.117883 0.903953
0.000000 0.192456 0.896709
0.000000 0.191489 0.906761
0.000000 0.197048 0.916294
0.000000 0.206318 0.927854
0.278706 0.232301 0.933082
0.000000 0.358418 0.986724
0.000000 0.359307 0.977934
0.000000 0.365715 0.993244
0.000000 0.375007 1.000000
0.258420 0.374824 1.000000
0.000000 0.573573 1.000000
0.000000 0.580416 1.000000
0.000000 0.589680 1.000000
0.015792 0.593029 1.000000
0.303814 0.600191 1.000000
