Assets/ModularCityAlleyPack/Third Party Assets/log_to_linear_lut.CUBE
#Created by: Adobe Photoshop Export Color Lookup Plugin
TITLE "lut_cube.exr"
#LUT size
LUT_3D_SIZE 32
#data domain
DOMAIN_MIN 0.0 0.0 0.0
DOMAIN_MAX 1.0 1.0 1.0
#LUT data points
0.000000 0.000000 0.000000
0.000000 0.000000 0.000000
0.000000 0.000000 0.000000
0.000000 0.000000 0.000000
0.000000 0.000000 0.000000
0.000000 0.000000 0.000000
0.005936 0.000000 0.000000
0.022042 0.000000 0.000000
0.045341 0.000000 0.000000
0.078328 0.000000 0.000000
0.124644 0.000000 0.000000
0.189390 0.000000 0.000000
0.279667 0.000000 0.000000
0.405327 0.000000 0.000000
0.580036 0.000000 0.000000
0.822740 0.000000 0.000000
1.000000 0.000000 0.000000
1.000000 0.000000 0.000000
1.000000 0.000000 0.000000
1.000000 0.000000 0.000000
1.000000 0.000000 0.000000
1.000000 0.000000 0.000000
1.000000 0.000000 0.000000
1.000000 0.000000 0.000000
1.000000 0.000000 0.000000
1.000000 0.000000 0.000000
1.000000 0.000000 0.000000
1.000000 0.000000 0.000000
1.000000 0.000000 0.000000
1.000000 0.000000 0.000000
1.000000 0.000000 0.000000
1.000000 0.000000 0.000000
0.000000 0.000000 0.000000
0.000000 0.000000 0.000000
0.000000 0.000000 0.000000
0.000000 0.000000 0.000000
0.000000 0.000000 0.000000
0.000000 0.000000 0.000000
0.005549 0.000000 0.000000
0.021617 0.000000 0.000000
0.044895 0.000000 0.000000
0.077864 0.000000 0.000000
0.124164 0.000000 0.000000
0.188896 0.000000 0.000000
0.279159 0.000000 0.000000
0.404806 0.000000 0.000000
0.579502 0.000000 0.000000
0.822193 0.000000 0.000000
1.000000 0.000000 0.000000
1.000000 0.000000 0.000000
1.000000 0.000000 0.000000
1.000000 0.000000 0.000000
1.000000 0.000000 0.000000
1.000000 0.000000 0.000000
1.000000 0.000000 0.000000
1.000000 0.000000 0.000000
1.000000 0.000000 0.000000
1.000000 0.000000 0.000000
1.000000 0.000000 0.000000
1.000000 0.000000 0.000000
1.000000 0.000000 0.000000
1.000000 0.000000 0.000000
1.000000 0.000000 0.000000
1.000000 0.000000 0.000000
0.000000 0.000000 0.000000
0.000000 0.000000 0.000000
0.000000 0.000000 0.000000
0.000000 0.000000 0.000000
0.000000 0.000000 0.000000
0.000000 0.000000 0.000000
0.005164 0.000000 0.000000
0.021193 0.000000 0.000000
0.044448 0.000000 0.000000
0.077400 0.000000 0.000000
0.123684 0.000000 0.000000
0.188402 0.000000 0.000000
0.278651 0.000000 0.000000
0.404285 0.000000 0.000000
0.578967 0.000000 0.000000
0.821645 0.000000 0.000000
1.000000 0.000000 0.000000
1.000000 0.000000 0.000000
1.000000 0.000000 0.000000
1.000000 0.000000 0.000000
1.000000 0.000000 0.000000
1.000000 0.000000 0.000000
1.000000 0.000000 0.000000
1.000000 0.000000 0.000000
1.000000 0.000000 0.000000
1.000000 0.000000 0.000000
1.000000 0.000000 0.000000
1.000000 0.000000 0.000000
1.000000 0.000000 0.000000
1.000000 0.000000 0.000000
1.000000 0.000000 0.000000
1.000000 0.000000 0.000000
0.000000 0.000000 0.000000
0.000000 0.000000 0.000000
0.000000 0.000000 0.000000
0.000000 0.000000 0.000000
0.000000 0.000000 0.000000
0.000000 0.000000 0.000000
0.004784 0.000000 0.000000
0.020773 0.000000 0.000000
0.044006 0.000000 0.000000
0.076940 0.000000 0.000000
0.123209 0.000000 0.000000
0.187913 0.000000 0.000000
0.278148 0.000000 0.000000
0.403768 0.000000 0.000000
0.578438 0.000000 0.000000
0.821102 0.000000 0.000000
1.000000 0.000000 0.000000
1.000000 0.000000 0.000000
1.000000 0.000000 0.000000
1.000000 0.000000 0.000000
1.000000 0.000000 0.000000
1.000000 0.000000 0.000000
1.000000 0.000000 0.000000
1.000000 0.000000 0.000000
1.000000 0.000000 0.000000
1.000000 0.000000 0.000000
1.000000 0.000000 0.000000
1.000000 0.000000 0.000000
1.000000 0.000000 0.000000
1.000000 0.000000 0.000000
1.000000 0.000000 0.000000
1.000000 0.000000 0.000000
0.000000 0.000000 0.000000
0.000000 0.000000 0.000000
0.000000 0.000000 0.000000
0.000000 0.000000 0.000000
0.000000 0.000000 0.000000
0.000000 0.000000 0.000000
0.004430 0.000000 0.000000
0.020379 0.000000 0.000000
0.043591 0.000000 0.000000
0.076508 0.000000 0.000000
0.122763 0.000000 0.000000
0.187453 0.000000 0.000000
0.277676 0.000000 0.000000
0.403283 0.000000 0.000000
0.577941 0.000000 0.000000
0.820593 0.000000 0.000000
1.000000 0.000000 0.000000
1.000000 0.000000 0.000000
1.000000 0.000000 0.000000
1.000000 0.000000 0.000000
1.000000 0.000000 0.000000
1.000000 0.000000 0.000000
1.000000 0.000000 0.000000
1.000000 0.000000 0.000000
1.000000 0.000000 0.000000
1.000000 0.000000 0.000000
1.000000 0.000000 0.000000
1.000000 0.000000 0.000000
1.000000 0.000000 0.000000
1.000000 0.000000 0.000000
1.000000 0.000000 0.000000
1.000000 0.000000 0.000000
0.000000 0.000000 0.000000
0.000000 0.000000 0.000000
0.000000 0.000000 0.000000
0.000000 0.000000 0.000000
0.000000 0.000000 0.000000
0.000000 0.000000 0.000000
0.004066 0.000000 0.000000
0.019974 0.000000 0.000000
0.043163 0.000000 0.000000
0.076063 0.000000 0.000000
0.122303 0.000000 0.000000
0.186979 0.000000 0.000000
0.277189 0.000000 0.000000
0.402783 0.000000 0.000000
0.577428 0.000000 0.000000
0.820068 0.000000 0.000000
1.000000 0.000000 0.000000
1.000000 0.000000 0.000000
1.000000 0.000000 0.000000
1.000000 0.000000 0.000000
1.000000 0.000000 0.000000
1.000000 0.000000 0.000000
1.000000 0.000000 0.000000
1.000000 0.000000 0.000000
1.000000 0.000000 0.000000
1.000000 0.000000 0.000000
1.000000 0.000000 0.000000
1.000000 0.000000 0.000000
1.000000 0.000000 0.000000
1.000000 0.000000 0.000000
1.000000 0.000000 0.000000
1.000000 0.000000 0.000000
0.000000 0.000941 0.000000
0.000000 0.000964 0.000000
0.000000 0.001028 0.000000
0.000000 0.001091 0.000000
0.000000 0.001150 0.000000
0.000000 0.001211 0.000000
0.001768 0.001288 0.000000
0.019473 0.002638 0.000000
0.042635 0.001805 0.000000
0.075514 0.000720 0.000000
0.121734 0.000000 0.000000
0.186394 0.000000 0.000000
0.276587 0.000000 0.000000
0.402165 0.000000 0.000000
0.576794 0.000000 0.000000
0.819418 0.000000 0.000000
1.000000 0.000000 0.000000
1.000000 0.000000 0.000000
1.000000 0.000000 0.000000
1.000000 0.000000 0.000000
1.000000 0.000000 0.000000
1.000000 0.000000 0.000000
1.000000 0.000000 0.000000
1.000000 0.000000 0.000000
1.000000 0.000000 0.000000
1.000000 0.000000 0.000000
1.000000 0.000000 0.000000
1.000000 0.000000 0.000000
1.000000 0.000000 0.000000
1.000000 0.000000 0.000000
1.000000 0.000000 0.000000
1.000000 0.000000 0.000000
0.000000 0.016637 0.000000
0.000000 0.016652 0.000000
0.000000 0.016729 0.000000
0.000000 0.016806 0.000000
0.000000 0.016877 0.000000
0.000000 0.016951 0.000000
0.000000 0.017043 0.000000
0.016123 0.017167 0.000000
0.041919 0.019102 0.000000
0.074768 0.017790 0.000000
0.120964 0.016023 0.000000
0.185600 0.013649 0.000000
0.275770 0.010477 0.000000
0.401327 0.006288 0.000000
0.575935 0.000974 0.000000
0.818537 0.000000 0.000000
1.000000 0.000000 0.000000
1.000000 0.000000 0.000000
1.000000 0.000000 0.000000
1.000000 0.000000 0.000000
1.000000 0.000000 0.000000
1.000000 0.000000 0.000000
1.000000 0.000000 0.000000
1.000000 0.000000 0.000000
1.000000 0.000000 0.000000
1.000000 0.000000 0.000000
1.000000 0.000000 0.000000
1.000000 0.000000 0.000000
1.000000 0.000000 0.000000
1.000000 0.000000 0.000000
1.000000 0.000000 0.000000
1.000000 0.000000 0.000000
0.000000 0.040023 0.000000
0.000000 0.040020 0.000000
0.000000 0.040102 0.000000
0.000000 0.040183 0.000000
0.000000 0.040260 0.000000
0.000000 0.040338 0.000000
0.000000 0.040436 0.000000
0.012977 0.040567 0.000000
0.037316 0.040746 0.000000
0.073759 0.043308 0.000000
0.119919 0.041423 0.000000
0.184523 0.038877 0.000000
0.274664 0.035445 0.000000
0.400191 0.030830 0.000000
0.574769 0.024653 0.000000
0.817343 0.016459 0.000000
1.000000 0.005847 0.000000
1.000000 0.000000 0.000000
1.000000 0.000000 0.000000
1.000000 0.000000 0.000000
1.000000 0.000000 0.000000
1.000000 0.000000 0.000000
1.000000 0.000000 0.000000
1.000000 0.000000 0.000000
1.000000 0.000000 0.000000
1.000000 0.000000 0.000000
1.000000 0.000000 0.000000
1.000000 0.000000 0.000000
1.000000 0.000000 0.000000
1.000000 0.000000 0.000000
1.000000 0.000000 0.000000
1.000000 0.000000 0.000000
0.000000 0.073349 0.000000
0.000000 0.073320 0.000000
0.000000 0.073405 0.000000
0.000000 0.073490 0.000000
0.000000 0.073570 0.000000
0.000000 0.073652 0.000000
0.000000 0.073753 0.000000
0.008798 0.073891 0.000000
0.032779 0.074077 0.000000
0.067471 0.074330 0.000000
0.118504 0.077721 0.000000
0.183065 0.075058 0.000000
0.273164 0.071459 0.000000
0.398651 0.066600 0.000000
0.573190 0.060055 0.000000
0.815724 0.051265 0.000000
1.000000 0.039524 0.000000
1.000000 0.024015 0.000000
1.000000 0.004289 0.000000
1.000000 0.000000 0.000000
1.000000 0.000000 0.000000
1.000000 0.000000 0.000000
1.000000 0.000000 0.000000
1.000000 0.000000 0.000000
1.000000 0.000000 0.000000
1.000000 0.000000 0.000000
1.000000 0.000000 0.000000
1.000000 0.000000 0.000000
1.000000 0.000000 0.000000
1.000000 0.000000 0.000000
1.000000 0.000000 0.000000
1.000000 0.000000 0.000000
0.000000 0.120277 0.000000
0.000000 0.120209 0.000000
0.000000 0.120298 0.000000
0.000000 0.120385 0.000000
0.000000 0.120468 0.000000
0.000000 0.120553 0.000000
0.000000 0.120658 0.000000
0.003370 0.120800 0.000000
0.026698 0.120993 0.000000
0.061053 0.121255 0.000000
0.109906 0.121610 0.000000
0.181088 0.126130 0.000000
0.271131 0.122395 0.000000
0.396563 0.117345 0.000000
0.571048 0.110525 0.000000
0.813528 0.101330 0.000000
1.000000 0.088962 0.000000
1.000000 0.072398 0.000000
1.000000 0.050386 0.000000
1.000000 0.021704 0.000000
1.000000 0.000000 0.000000
1.000000 0.000000 0.000000
1.000000 0.000000 0.000000
1.000000 0.000000 0.000000
1.000000 0.000000 0.000000
1.000000 0.000000 0.000000
1.000000 0.000000 0.000000
1.000000 0.000000 0.000000
1.000000 0.000000 0.000000
1.000000 0.000000 0.000000
1.000000 0.000000 0.000000
1.000000 0.000000 0.000000
0.000000 0.185983 0.000000
0.000000 0.185862 0.000000
0.000000 0.185953 0.000000
0.000000 0.186043 0.000000
0.000000 0.186128 0.000000
0.000000 0.186216 0.000000
0.000000 0.186324 0.000000
0.000000 0.186471 0.000000
0.018612 0.186670 0.000000
0.052427 0.186940 0.000000
0.100898 0.187306 0.000000
0.169301 0.187803 0.000000
0.268376 0.193874 0.000000
0.393734 0.188656 0.000000
0.568146 0.181601 0.000000
0.810553 0.172069 0.000000
1.000000 0.159212 0.000000
1.000000 0.141907 0.000000
1.000000 0.118697 0.000000
1.000000 0.087767 0.000000
1.000000 0.047132 0.000000
1.000000 0.000000 0.000000
1.000000 0.000000 0.000000
1.000000 0.000000 0.000000
1.000000 0.000000 0.000000
1.000000 0.000000 0.000000
1.000000 0.000000 0.000000
1.000000 0.000000 0.000000
1.000000 0.000000 0.000000
1.000000 0.000000 0.000000
1.000000 0.000000 0.000000
1.000000 0.000000 0.000000
0.000000 0.277687 0.000000
0.000000 0.277489 0.000000
0.000000 0.277583 0.000000
0.000000 0.277676 0.000000
0.000000 0.277763 0.000000
0.000000 0.277854 0.000000
0.000000 0.277965 0.000000
0.000000 0.278116 0.000000
0.008067 0.278321 0.000000
0.040894 0.278598 0.000000
0.088776 0.278975 0.000000
0.156711 0.279485 0.000000
0.252179 0.280177 0.000000
0.389901 0.288391 0.000000
0.564213 0.281119 0.000000
0.806521 0.271286 0.000000
1.000000 0.258000 0.000000
1.000000 0.240073 0.000000
1.000000 0.215935 0.000000
1.000000 0.183536 0.000000
1.000000 0.140292 0.000000
1.000000 0.083250 0.000000
1.000000 0.011121 0.000000
1.000000 0.000000 0.000000
1.000000 0.000000 0.000000
1.000000 0.000000 0.000000
1.000000 0.000000 0.000000
1.000000 0.000000 0.000000
1.000000 0.000000 0.000000
1.000000 0.000000 0.000000
1.000000 0.000000 0.000000
1.000000 0.000000 0.000000
0.000000 0.405414 0.000000
0.000000 0.405206 0.000000
0.000000 0.405206 0.000000
0.000000 0.405301 0.000000
0.000000 0.405391 0.000000
0.000000 0.405483 0.000000
0.000000 0.405598 0.000000
0.000000 0.405753 0.000000
0.000000 0.405963 0.000000
0.025635 0.406248 0.000000
0.072532 0.406635 0.000000
0.139758 0.407159 0.000000
0.234627 0.407869 0.000000
0.367597 0.408833 0.000000
0.558885 0.420009 0.000000
0.801058 0.409891 0.000000
1.000000 0.396208 0.000000
1.000000 0.377720 0.000000
1.000000 0.352771 0.000000
1.000000 0.319170 0.000000
1.000000 0.274047 0.000000
1.000000 0.213763 0.000000
1.000000 0.134060 0.000000
1.000000 0.032038 0.000000
1.000000 0.000000 0.000000
1.000000 0.000000 0.000000
1.000000 0.000000 0.000000
1.000000 0.000000 0.000000
1.000000 0.000000 0.000000
1.000000 0.000000 0.000000
1.000000 0.000000 0.000000
1.000000 0.000000 0.000000
0.000000 0.583071 0.000000
0.000000 0.582857 0.000000
0.000000 0.582717 0.000000
0.000000 0.582815 0.000000
0.000000 0.582907 0.000000
0.000000 0.583002 0.000000
0.000000 0.583119 0.000000
0.000000 0.583278 0.000000
0.000000 0.583494 0.000000
0.006092 0.583786 0.000000
0.050930 0.584183 0.000000
0.117013 0.584720 0.000000
0.210986 0.585449 0.000000
0.343169 0.586437 0.000000
0.528119 0.587776 0.000000
0.793657 0.603054 0.000000
1.000000 0.588991 0.000000
1.000000 0.569973 0.000000
1.000000 0.544276 0.000000
1.000000 0.509598 0.000000
1.000000 0.462885 0.000000
1.000000 0.400137 0.000000
1.000000 0.316257 0.000000
1.000000 0.205195 0.000000
1.000000 0.062142 0.000000
1.000000 0.000000 0.000000
1.000000 0.000000 0.000000
1.000000 0.000000 0.000000
1.000000 0.000000 0.000000
1.000000 0.000000 0.000000
1.000000 0.000000 0.000000
1.000000 0.000000 0.000000
0.000000 0.829942 0.000000
0.000000 0.829723 0.000000
0.000000 0.829504 0.000000
0.000000 0.829485 0.000000
0.000000 0.829579 0.000000
0.000000 0.829676 0.000000
0.000000 0.829796 0.000000
0.000000 0.829959 0.000000
0.000000 0.830181 0.000000
0.000000 0.830480 0.000000
0.022736 0.830887 0.000000
0.086689 0.831438 0.000000
0.179244 0.832185 0.000000
0.310259 0.833197 0.000000
0.494162 0.834570 0.000000
0.751167 0.836430 0.000000
1.000000 0.857389 0.000000
1.000000 0.837857 0.000000
1.000000 0.811445 0.000000
1.000000 0.775758 0.000000
1.000000 0.727598 0.000000
1.000000 0.662718 0.000000
1.000000 0.575553 0.000000
1.000000 0.458986 0.000000
1.000000 0.304501 0.000000
1.000000 0.104775 0.000000
1.000000 0.000000 0.000000
1.000000 0.000000 0.000000
1.000000 0.000000 0.000000
1.000000 0.000000 0.000000
1.000000 0.000000 0.000000
1.000000 0.000000 0.000000
0.000000 1.000000 0.000000
0.000000 1.000000 0.000000
0.000000 1.000000 0.000000
0.000000 1.000000 0.000000
0.000000 1.000000 0.000000
0.000000 1.000000 0.000000
0.000000 1.000000 0.000000
0.000000 1.000000 0.000000
0.000000 1.000000 0.000000
0.000000 1.000000 0.000000
0.000000 1.000000 0.000000
0.046828 1.000000 0.000000
0.136865 1.000000 0.000000
0.266055 1.000000 0.000000
0.448406 1.000000 0.000000
0.703998 1.000000 0.000000
1.000000 1.000000 0.000000
1.000000 1.000000 0.000000
1.000000 1.000000 0.000000
1.000000 1.000000 0.000000
1.000000 1.000000 0.000000
1.000000 1.000000 0.000000
1.000000 0.940351 0.000000
1.000000 0.819357 0.000000
1.000000 0.657510 0.000000
1.000000 0.442880 0.000000
1.000000 0.164736 0.000000
1.000000 0.000000 0.000000
1.000000 0.000000 0.000000
1.000000 0.000000 0.000000
1.000000 0.000000 0.000000
1.000000 0.000000 0.000000
0.000000 1.000000 0.000000
0.000000 1.000000 0.000000
0.000000 1.000000 0.000000
0.000000 1.000000 0.000000
0.000000 1.000000 0.000000
0.000000 1.000000 0.000000
0.000000 1.000000 0.000000
0.000000 1.000000 0.000000
0.000000 1.000000 0.000000
0.000000 1.000000 0.000000
0.000000 1.000000 0.000000
0.000000 1.000000 0.000000
0.080953 1.000000 0.000000
0.206986 1.000000 0.000000
0.386930 1.000000 0.000000
0.640438 1.000000 0.000000
0.995404 1.000000 0.000000
1.000000 1.000000 0.000000
1.000000 1.000000 0.000000
1.000000 1.000000 0.000000
1.000000 1.000000 0.000000
1.000000 1.000000 0.000000
1.000000 1.000000 0.000000
1.000000 1.000000 0.000000
1.000000 1.000000 0.000000
1.000000 0.933404 0.000000
1.000000 0.635465 0.000000
1.000000 0.248740 0.000000
1.000000 0.000000 0.000000
1.000000 0.000000 0.000000
1.000000 0.000000 0.000000
1.000000 0.000000 0.000000
0.000000 1.000000 0.000000
0.000000 1.000000 0.000000
0.000000 1.000000 0.000000
0.000000 1.000000 0.000000
0.000000 1.000000 0.000000
0.000000 1.000000 0.000000
0.000000 1.000000 0.000000
0.000000 1.000000 0.000000
0.000000 1.000000 0.000000
0.000000 1.000000 0.000000
0.000000 1.000000 0.000000
0.000000 1.000000 0.000000
0.010293 1.000000 0.000000
0.128887 1.000000 0.000000
0.304739 1.000000 0.000000
0.555028 1.000000 0.000000
0.907167 1.000000 0.000000
1.000000 1.000000 0.000000
1.000000 1.000000 0.000000
1.000000 1.000000 0.000000
1.000000 1.000000 0.000000
1.000000 1.000000 0.000000
1.000000 1.000000 0.000000
1.000000 1.000000 0.000000
1.000000 1.000000 0.000000
1.000000 1.000000 0.000000
1.000000 1.000000 0.000000
1.000000 0.903250 0.000000
1.000000 0.366156 0.000000
1.000000 0.000000 0.000000
1.000000 0.000000 0.000000
1.000000 0.000000 0.000000
0.000000 1.000000 0.000000
0.000000 1.000000 0.000000
0.000000 1.000000 0.000000
0.000000 1.000000 0.000000
0.000000 1.000000 0.000000
0.000000 1.000000 0.000000
0.000000 1.000000 0.000000
0.000000 1.000000 0.000000
0.000000 1.000000 0.000000
0.000000 1.000000 0.000000
0.000000 1.000000 0.000000
0.000000 1.000000 0.000000
0.000000 1.000000 0.000000
0.029034 1.000000 0.000000
0.195925 1.000000 0.000000
0.440799 1.000000 0.000000
0.788589 1.000000 0.000000
1.000000 1.000000 0.000000
1.000000 1.000000 0.000000
1.000000 1.000000 0.000000
1.000000 1.000000 0.000000
1.000000 1.000000 0.000000
1.000000 1.000000 0.000000
1.000000 1.000000 0.000000
1.000000 1.000000 0.000000
1.000000 1.000000 0.000000
1.000000 1.000000 0.000000
1.000000 1.000000 0.000000
1.000000 1.000000 0.000000
1.000000 0.530005 0.000000
1.000000 0.000000 0.000000
1.000000 0.000000 0.000000
0.000000 1.000000 0.000000
0.000000 1.000000 0.000000
0.000000 1.000000 0.000000
0.000000 1.000000 0.000000
0.000000 1.000000 0.000000
0.000000 1.000000 0.000000
0.000000 1.000000 0.000000
0.000000 1.000000 0.000000
0.000000 1.000000 0.000000
0.000000 1.000000 0.000000
0.000000 1.000000 0.000000
0.000000 1.000000 0.000000
0.000000 1.000000 0.000000
0.000000 1.000000 0.000000
0.055956 1.000000 0.000000
0.289434 1.000000 0.000000
0.629962 1.000000 0.000000
1.000000 1.000000 0.000000
1.000000 1.000000 0.000000
1.000000 1.000000 0.000000
1.000000 1.000000 0.000000
1.000000 1.000000 0.000000
1.000000 1.000000 0.000000
1.000000 1.000000 0.000000
1.000000 1.000000 0.000000
1.000000 1.000000 0.000000
1.000000 1.000000 0.000000
1.000000 1.000000 0.000000
1.000000 1.000000 0.000000
1.000000 1.000000 0.000000
1.000000 0.758405 0.000000
1.000000 0.000000 0.000000
0.000000 1.000000 0.000000
0.000000 1.000000 0.000000
0.000000 1.000000 0.000000
0.000000 1.000000 0.000000
0.000000 1.000000 0.000000
0.000000 1.000000 0.000000
0.000000 1.000000 0.000000
0.000000 1.000000 0.000000
0.000000 1.000000 0.000000
0.000000 1.000000 0.000000
0.000000 1.000000 0.000000
0.000000 1.000000 0.000000
0.000000 1.000000 0.000000
0.000000 1.000000 0.000000
0.000000 1.000000 0.000000
0.094028 1.000000 0.000000
0.419647 1.000000 0.000000
0.892752 1.000000 0.000000
1.000000 1.000000 0.000000
1.000000 1.000000 0.000000
1.000000 1.000000 0.000000
1.000000 1.000000 0.000000
1.000000 1.000000 0.000000
1.000000 1.000000 0.000000
1.000000 1.000000 0.000000
1.000000 1.000000 0.000000
1.000000 1.000000 0.000000
1.000000 1.000000 0.000000
1.000000 1.000000 0.000000
1.000000 1.000000 0.000000
1.000000 1.000000 0.000000
1.000000 1.000000 0.000000
0.000000 1.000000 0.000000
0.000000 1.000000 0.000000
0.000000 1.000000 0.000000
0.000000 1.000000 0.000000
0.000000 1.000000 0.000000
0.000000 1.000000 0.000000
0.000000 1.000000 0.000000
0.000000 1.000000 0.000000
0.000000 1.000000 0.000000
0.000000 1.000000 0.000000
0.000000 1.000000 0.000000
0.000000 1.000000 0.000000
0.000000 1.000000 0.000000
0.000000 1.000000 0.000000
0.000000 1.000000 0.000000
0.000000 1.000000 0.000000
0.147504 1.000000 0.000000
0.600758 1.000000 0.000000
1.000000 1.000000 0.000000
1.000000 1.000000 0.000000
1.000000 1.000000 0.000000
1.000000 1.000000 0.000000
1.000000 1.000000 0.000000
1.000000 1.000000 0.000000
1.000000 1.000000 0.000000
1.000000 1.000000 0.000000
1.000000 1.000000 0.000000
1.000000 1.000000 0.000000
1.000000 1.000000 0.000000
1.000000 1.000000 0.000000
1.000000 1.000000 0.000000
1.000000 1.000000 0.000000
0.000000 1.000000 0.000000
0.000000 1.000000 0.000000
0.000000 1.000000 0.000000
0.000000 1.000000 0.000000
0.000000 1.000000 0.000000
0.000000 1.000000 0.000000
0.000000 1.000000 0.000000
0.000000 1.000000 0.000000
0.000000 1.000000 0.000000
0.000000 1.000000 0.000000
0.000000 1.000000 0.000000
0.000000 1.000000 0.000000
0.000000 1.000000 0.000000
0.000000 1.000000 0.000000
0.000000 1.000000 0.000000
0.000000 1.000000 0.000000
0.000000 1.000000 0.000000
0.222335 1.000000 0.000000
0.852453 1.000000 0.000000
1.000000 1.000000 0.000000
1.000000 1.000000 0.000000
1.000000 1.000000 0.000000
1.000000 1.000000 0.000000
1.000000 1.000000 0.000000
1.000000 1.000000 0.000000
1.000000 1.000000 0.000000
1.000000 1.000000 0.000000
1.000000 1.000000 0.000000
1.000000 1.000000 0.000000
1.000000 1.000000 0.000000
1.000000 1.000000 0.000000
1.000000 1.000000 0.000000
0.000000 1.000000 0.000000
0.000000 1.000000 0.000000
0.000000 1.000000 0.000000
0.000000 1.000000 0.000000
0.000000 1.000000 0.000000
0.000000 1.000000 0.000000
0.000000 1.000000 0.000000
0.000000 1.000000 0.000000
0.000000 1.000000 0.000000
0.000000 1.000000 0.000000
0.000000 1.000000 0.000000
0.000000 1.000000 0.000000
0.000000 1.000000 0.000000
0.000000 1.000000 0.000000
0.000000 1.000000 0.000000
0.000000 1.000000 0.000000
0.000000 1.000000 0.000000
0.000000 1.000000 0.000000
0.326807 1.000000 0.000000
1.000000 1.000000 0.000000
1.000000 1.000000 0.000000
1.000000 1.000000 0.000000
1.000000 1.000000 0.000000
1.000000 1.000000 0.000000
1.000000 1.000000 0.000000
1.000000 1.000000 0.000000
1.000000 1.000000 0.000000
1.000000 1.000000 0.000000
1.000000 1.000000 0.000000
1.000000 1.000000 0.000000
1.000000 1.000000 0.000000
1.000000 1.000000 0.000000
0.000000 1.000000 0.000000
0.000000 1.000000 0.000000
0.000000 1.000000 0.000000
0.000000 1.000000 0.000000
0.000000 1.000000 0.000000
0.000000 1.000000 0.000000
0.000000 1.000000 0.000000
0.000000 1.000000 0.000000
0.000000 1.000000 0.000000
0.000000 1.000000 0.000000
0.000000 1.000000 0.000000
0.000000 1.000000 0.000000
0.000000 1.000000 0.000000
0.000000 1.000000 0.000000
0.000000 1.000000 0.000000
0.000000 1.000000 0.000000
0.000000 1.000000 0.000000
0.000000 1.000000 0.000000
0.000000 1.000000 0.000000
0.472434 1.000000 0.000000
1.000000 1.000000 0.000000
1.000000 1.000000 0.000000
1.000000 1.000000 0.000000
1.000000 1.000000 0.000000
1.000000 1.000000 0.000000
1.000000 1.000000 0.000000
1.000000 1.000000 0.000000
1.000000 1.000000 0.000000
1.000000 1.000000 0.000000
1.000000 1.000000 0.000000
1.000000 1.000000 0.000000
1.000000 1.000000 0.000000
0.000000 1.000000 0.000000
0.000000 1.000000 0.000000
0.000000 1.000000 0.000000
0.000000 1.000000 0.000000
0.000000 1.000000 0.000000
0.000000 1.000000 0.000000
0.000000 1.000000 0.000000
0.000000 1.000000 0.000000
0.000000 1.000000 0.000000
0.000000 1.000000 0.000000
0.000000 1.000000 0.000000
0.000000 1.000000 0.000000
0.000000 1.000000 0.000000
0.000000 1.000000 0.000000
0.000000 1.000000 0.000000
0.000000 1.000000 0.000000
0.000000 1.000000 0.000000
0.000000 1.000000 0.000000
0.000000 1.000000 0.000000
0.000000 1.000000 0.000000
0.675204 1.000000 0.000000
1.000000 1.000000 0.000000
1.000000 1.000000 0.000000
1.000000 1.000000 0.000000
1.000000 1.000000 0.000000
1.000000 1.000000 0.000000
1.000000 1.000000 0.000000
1.000000 1.000000 0.000000
1.000000 1.000000 0.000000
1.000000 1.000000 0.000000
1.000000 1.000000 0.000000
1.000000 1.000000 0.000000
0.000000 1.000000 0.000000
0.000000 1.000000 0.000000
0.000000 1.000000 0.000000
0.000000 1.000000 0.000000
0.000000 1.000000 0.000000
0.000000 1.000000 0.000000
0.000000 1.000000 0.000000
0.000000 1.000000 0.000000
0.000000 1.000000 0.000000
0.000000 1.000000 0.000000
0.000000 1.000000 0.000000
0.000000 1.000000 0.000000
0.000000 1.000000 0.000000
0.000000 1.000000 0.000000
0.000000 1.000000 0.000000
0.000000 1.000000 0.000000
0.000000 1.000000 0.000000
0.000000 1.000000 0.000000
