Assets/ModularCityAlleyPack/Third Party Assets/log_to_linear_lut.CUBE
#Created by: Adobe Photoshop Export Color Lookup Plugin
TITLE "lut_cube.exr"
#LUT size
LUT_3D_SIZE 5
#data domain
#LUT data points
DOMAIN_MIN 0.000000 0.000000 0.000000
DOMAIN_MAX 0.903226 0.903226 0.903226
0.000000 0.000000 0.000000
0.022042 0.000000 0.000000
0.580036 0.000000 0.000000
1.000000 0.000000 0.000000
1.000000 0.000000 0.000000
0.000000 0.016637 0.000000
0.016123 0.017167 0.000000
0.575935 0.000974 0.000000
1.000000 0.000000 0.000000
1.000000 0.000000 0.000000
0.000000 0.583071 0.000000
0.000000 0.583278 0.000000
0.528119 0.587776 0.000000
1.000000 0.400137 0.000000
1.000000 0.000000 0.000000
0.000000 1.000000 0.000000
0.000000 1.000000 0.000000
0.000000 1.000000 0.000000
1.000000 1.000000 0.000000
1.000000 1.000000 0.000000
0.000000 1.000000 0.000000
0.000000 1.000000 0.000000
0.000000 1.000000 0.000000
0.000000 1.000000 0.000000
1.000000 1.000000 0.000000
0.000000 0.000000 0.031674
0.009503 0.000000 0.028311
0.568001 0.000000 0.000000
1.000000 0.000000 0.000000
1.000000 0.000000 0.000000
0.000000 0.015013 0.034952
0.001397 0.011687 0.026241
0.552576 0.000000 0.000000
1.000000 0.000000 0.000000
1.000000 0.000000 0.000000
0.000000 0.584708 0.026568
0.000000 0.576649 0.014241
0.508289 0.580672 0.000000
1.000000 0.389627 0.000000
1.000000 0.000000 0.000000
0.000000 1.000000 0.000000
0.000000 1.000000 0.000000
0.000000 1.000000 0.000000
1.000000 1.000000 0.000000
1.000000 1.000000 0.000000
0.000000 1.000000 0.000000
0.000000 1.000000 0.000000
0.000000 1.000000 0.000000
0.000000 1.000000 0.000000
1.000000 1.000000 0.000000
0.000000 0.000000 0.781361
0.000000 0.000000 0.782013
0.468829 0.000000 0.752128
1.000000 0.000000 0.013062
1.000000 0.000000 0.000000
0.000000 0.000000 0.784484
0.000000 0.000000 0.774519
0.457670 0.000000 0.749518
1.000000 0.000000 0.011106
1.000000 0.000000 0.000000
0.000000 0.568605 0.809710
0.000000 0.564280 0.798757
0.391938 0.538695 0.734060
1.000000 0.327756 0.211431
1.000000 0.000000 0.000000
0.000000 1.000000 0.714317
0.000000 1.000000 0.698498
0.000000 1.000000 0.605287
1.000000 1.000000 0.401596
1.000000 1.000000 0.000000
0.000000 1.000000 0.000000
0.000000 1.000000 0.000000
0.000000 1.000000 0.000000
0.000000 1.000000 0.000000
1.000000 1.000000 0.000000
0.000000 0.000000 1.000000
0.000000 0.000000 1.000000
0.000000 0.000000 1.000000
1.000000 0.000000 1.000000
1.000000 0.000000 0.613921
0.000000 0.000000 1.000000
0.000000 0.000000 1.000000
0.000000 0.000000 1.000000
1.000000 0.000000 1.000000
1.000000 0.000000 0.611337
0.000000 0.059694 1.000000
0.000000 0.056007 1.000000
0.000000 0.197606 1.000000
1.000000 0.229087 1.000000
1.000000 0.000000 0.596120
0.000000 1.000000 1.000000
0.000000 1.000000 1.000000
0.000000 1.000000 1.000000
1.000000 1.000000 1.000000
1.000000 1.000000 1.000000
0.000000 1.000000 1.000000
0.000000 1.000000 1.000000
0.000000 1.000000 1.000000
0.000000 1.000000 1.000000
1.000000 1.000000 1.000000
0.000000 0.000000 1.000000
0.000000 0.000000 1.000000
0.000000 0.000000 1.000000
0.000000 0.000000 1.000000
1.000000 0.000000 1.000000
0.000000 0.000000 1.000000
0.000000 0.000000 1.000000
0.000000 0.000000 1.000000
0.000000 0.000000 1.000000
1.000000 0.000000 1.000000
0.000000 0.000000 1.000000
0.000000 0.000000 1.000000
0.000000 0.000000 1.000000
0.000000 0.000000 1.000000
1.000000 0.000000 1.000000
0.000000 1.000000 1.000000
0.000000 1.000000 1.000000
0.000000 1.000000 1.000000
0.000000 1.000000 1.000000
1.000000 1.000000 1.000000
0.000000 1.000000 1.000000
0.000000 1.000000 1.000000
0.000000 1.000000 1.000000
0.000000 1.000000 1.000000
1.000000 1.000000 1.000000
